X: 1
T: nestedrepetition
M:4/4
L:1/4
Q:140
K:C
|:dff cee|:def gfe|dff cee|dfe dBA| dff cee:|def gfe|faf gfe:|